X:42
T:Favourite Waltz. Le4.042
T:O Du Lieber Augustine,aka. Le4.042
T:You Can't Put Your Muck in Our Dustbin,aka. Le4.042
B:L.Leadley MS#4 c1850
Z:Village Music Project, 2016 Steve Mansfield
M:3/8
L:1/8
Q:3/8=60
K:C
gg/a/g/f/ | ecc | dGG | ceg | gg/a/g/f/ | ecc | dGG | c3 :|
|: dGG | ef/g/e/c/ | dGG | ef/g/e/c/ |gg/a/g/f/ | ecc | dGG | c3 :|

